X:220
T: Old Blackguard Barndance
S: "Passing Time" (Jim & Mary Coogan & friends)
N: "Recorded by Joe Derrane and the Irish All Stars in the
N: early 50's"
L: 1/8
M: 4/4
Q: 350
R: hornpipe
K: D
(3ABc | d2 F2 A2 BA | G2 C2 E3 D | CDEF GFGA | BAAG A2 (3ABc |
d2 F2 A2 BA | G2 C2 E3 f | gfed cABc | e2 dc d2 :|
AG | F2 A2 dfed | c2 B2 G4 | c2 B2 GFGA | B2 A2 A2 AG |
F2 A2 dfed | c2 B2 G4 | gfed cABc | e2 dc d2 :|

